X: 1157
T: Riding a Mile. 1st Setting.
B:O'Neill's Music of Ireland
N:O'Neill's - 1157
Z:Transcribed by Stephen Foy (shf@access.digex.net)
Z:abc 1.6
M:9/8
R:slipjig
K:A
efg a2 a gfe | a2 c c2 d e3 | efg aba gfe |1 f2 B B2 c d2 :|2 fga baf a2 f ||
|: ecA (ABA) (ABA) | cBA A2 A agf | ecA ABA ABA |1 F2 B c2 d e2 f :|2 fga bag a2 z ||


